X: 3
T: The Bank Of Turf
R: jig
M: 6/8
L: 1/8
K: Dmaj
|:~A2A DFA|BAF DFA|~d2d ede|~f2f def|
~g2g gab|afd Bcd|[1 efe e2d|cBA Bcd:|[2ABd efe|~d3 dfd||
|:~e2A efg|~f2d fga|~g2e ~f2d|edB ABd|
~e2A efg|fed fga|gfe dcB|A3 A3/B/c/d/:|


Tune 1819	Setting 1819

